X: 32450
T: Pirate's
R: hornpipe
M: 4/4
K: Fdorian
|:B,2|EDEF EB,G,B,|EeBG EFGE|FAcB AGFE|DBFD B,=B,CD|
EDEF EB,G,B,|EeBG EFGE|AFcA GFED|E2G2E2:|
|:B2|e2e2 dB=AB|f2 fe dB=AB|afdB AFGE|DBFD B,=B,CD|
E2E2 CA,G,A,|F2 FE DB,=A,B,|eBAG FADF|[G,2E2][B,2G2][G,2E2]:|

